X: 41740
T: Valse Des Bébés
R: waltz
M: 3/4
K: Dmajor
A2G2|:F4F2|G4B2|A2 f3 f|f2 d2 AF|G2 e3 e|e2 c2 AG|F2 d3 d|d2 A2 G2|
F4F2|G4B2|A2 f3 f|f2 d2 AF|G4 e2|B4 c2|1 d6|d2 A2 G2:|2 d/f/d/A/ FA af|d4 fa||
|:b3 a fd|A3f dB|c3c c2|z2 a2 a2|b3a ge|c3 A B/c/B/A/|f6|f2 a2a2|
b3 a fd|A3f dB|c3c c2|z2 a2 a2|c'2b2a2|g/b/g/e/ cA Bc|d6|1 d4fa:|2 d6||

